svg/editor/indent_increase_fill.svg

<?xml version="1.0" encoding="UTF-8"?>
<svg width="24px" height="24px" viewBox="0 0 24 24" version="1.1" xmlns="http://www.w3.org/2000/svg" xmlns:xlink="http://www.w3.org/1999/xlink">
    <title>indent_increase_fill</title>
    <g id="页面-1" stroke="none" stroke-width="1" fill="none" fill-rule="evenodd">
        <g id="Editor" transform="translate(-624.000000, -48.000000)" fill-rule="nonzero">
            <g id="indent_increase_fill" transform="translate(624.000000, 48.000000)">
                 <path d="M24,0 L24,24 L0,24 L0,0 L24,0 Z M12.5934901,23.257841 L12.5819402,23.2595131 L12.5108777,23.2950439 L12.4918791,23.2987469 L12.4918791,23.2987469 L12.4767152,23.2950439 L12.4056548,23.2595131 C12.3958229,23.2563662 12.3870493,23.2590235 12.3821421,23.2649074 L12.3780323,23.275831 L12.360941,23.7031097 L12.3658947,23.7234994 L12.3769048,23.7357139 L12.4804777,23.8096931 L12.4953491,23.8136134 L12.4953491,23.8136134 L12.5071152,23.8096931 L12.6106902,23.7357139 L12.6232938,23.7196733 L12.6232938,23.7196733 L12.6266527,23.7031097 L12.609561,23.275831 C12.6075724,23.2657013 12.6010112,23.2592993 12.5934901,23.257841 L12.5934901,23.257841 Z M12.8583906,23.1452862 L12.8445485,23.1473072 L12.6598443,23.2396597 L12.6498822,23.2499052 L12.6498822,23.2499052 L12.6471943,23.2611114 L12.6650943,23.6906389 L12.6699349,23.7034178 L12.6699349,23.7034178 L12.678386,23.7104931 L12.8793402,23.8032389 C12.8914285,23.8068999 12.9022333,23.8029875 12.9078286,23.7952264 L12.9118235,23.7811639 L12.8776777,23.1665331 C12.8752882,23.1545897 12.8674102,23.1470016 12.8583906,23.1452862 L12.8583906,23.1452862 Z M12.1430473,23.1473072 C12.1332178,23.1423925 12.1221763,23.1452606 12.1156365,23.1525954 L12.1099173,23.1665331 L12.0757714,23.7811639 C12.0751323,23.7926639 12.0828099,23.8018602 12.0926481,23.8045676 L12.108256,23.8032389 L12.3092106,23.7104931 L12.3186497,23.7024347 L12.3186497,23.7024347 L12.3225043,23.6906389 L12.340401,23.2611114 L12.337245,23.2485176 L12.337245,23.2485176 L12.3277531,23.2396597 L12.1430473,23.1473072 Z" id="MingCute" fill-rule="nonzero"></path>
                <path d="M20,17.5 C20.8284,17.5 21.5,18.1716 21.5,19 C21.5,19.7796706 20.9050879,20.4204457 20.1444558,20.4931332 L20,20.5 L4,20.5 C3.17157,20.5 2.5,19.8284 2.5,19 C2.5,18.2203294 3.09488554,17.5795543 3.85553954,17.5068668 L4,17.5 L20,17.5 Z M20,12.5 C20.8284,12.5 21.5,13.1716 21.5,14 C21.5,14.8284 20.8284,15.5 20,15.5 L11,15.5 C10.1716,15.5 9.5,14.8284 9.5,14 C9.5,13.1716 10.1716,12.5 11,12.5 L20,12.5 Z M3.64296,9.17291 L3.93311976,9.32458624 L3.93311976,9.32458624 L4.27740768,9.51291912 C4.3390124,9.547389 4.402657,9.583406 4.46823375,9.62098 L4.88401821,9.86518704 L4.88401821,9.86518704 L5.34100323,10.1472363 C5.4203135,10.1974244 5.501125,10.249209 5.58333,10.3026 C5.839569,10.46904 6.0770223,10.630089 6.2942886,10.7824206 L6.70149,11.074475 C6.7647325,11.120885 6.8256282,11.16608 6.8841252,11.2099368 L7.344432,11.5651902 C7.3880697,11.599909 7.429153,11.63292 7.46763,11.6641 C7.6824,11.8382 7.67298,12.1852 7.44716,12.3674 L7.1866432,12.5735648 L7.1866432,12.5735648 L6.8680296,12.8162144 L6.8680296,12.8162144 L6.4932104,13.0901216 L6.4932104,13.0901216 L6.0640768,13.3900592 C5.9881334,13.4419276 5.9100057,13.4946628 5.8297331,13.5481559 L5.58252,13.7108 C5.41359,13.82052 5.2508624,13.923344 5.09516256,14.0193992 L4.64997168,14.2873856 L4.64997168,14.2873856 L4.25189952,14.5155224 L4.25189952,14.5155224 L3.90589824,14.7045728 L3.90589824,14.7045728 L3.61692,14.8553 L3.61692,14.8553 C3.36348,14.9844 3.09132,14.8195 3.0649,14.5229 L3.02512622,14.0126967 L3.02512622,14.0126967 L2.98895109,13.3626736 L2.98895109,13.3626736 L2.97096882,12.8587215 L2.97096882,12.8587215 L2.96078881,12.3032388 L2.96078881,12.3032388 L2.96095553,11.6945042 L2.96095553,11.6945042 L2.97229331,11.1090706 L2.97229331,11.1090706 L2.99214125,10.5819212 L2.99214125,10.5819212 L3.01754879,10.1181043 L3.01754879,10.1181043 L3.05963,9.55217 L3.05963,9.55217 C3.08695,9.23553 3.38546,9.04139 3.64296,9.17291 Z M20,7.5 C20.8284,7.5 21.5,8.17157 21.5,9 C21.5,9.82843 20.8284,10.5 20,10.5 L11,10.5 C10.1716,10.5 9.5,9.82843 9.5,9 C9.5,8.17157 10.1716,7.5 11,7.5 L20,7.5 Z M20,2.5 C20.8284,2.5 21.5,3.17157 21.5,4 C21.5,4.82843 20.8284,5.5 20,5.5 L4,5.5 C3.17157,5.5 2.5,4.82843 2.5,4 C2.5,3.17157 3.17157,2.5 4,2.5 L20,2.5 Z" id="形状" fill="#09244B"></path>
            </g>
        </g>
    </g>
</svg>

<svg xmlns="http://www.w3.org/2000/svg" width="24" height="24"><g fill="none" fill-rule="nonzero"><path d="M24 0v24H0V0h24ZM12.593 23.258l-.011.002-.071.035-.02.004-.014-.004-.071-.035c-.01-.004-.019-.001-.024.005l-.004.01-.017.428.005.02.01.013.104.074.015.004.012-.004.104-.074.012-.016.004-.017-.017-.427c-.002-.01-.009-.017-.017-.018Zm.265-.113-.013.002-.185.093-.01.01-.003.011.018.43.005.012.008.007.201.093c.012.004.023 0 .029-.008l.004-.014-.034-.614c-.003-.012-.01-.02-.02-.022Zm-.715.002a.023.023 0 0 0-.027.006l-.006.014-.034.614c0 .012.007.02.017.024l.015-.002.201-.093.01-.008.004-.011.017-.43-.003-.012-.01-.01-.184-.092Z"/><path fill="#09244B" d="M20 17.5a1.5 1.5 0 0 1 .144 2.993L20 20.5H4a1.5 1.5 0 0 1-.144-2.993L4 17.5h16Zm0-5a1.5 1.5 0 0 1 0 3h-9a1.5 1.5 0 0 1 0-3h9ZM3.643 9.173l.29.152.344.188c.062.034.126.07.191.108l.416.244.457.282a24.355 24.355 0 0 1 .953.635l.407.292.183.136.46.355.124.1c.214.173.205.52-.02.702l-.261.207-.319.242-.375.274-.429.3-.234.158-.247.163c-.17.11-.332.212-.488.308l-.445.268-.398.229-.346.189-.29.15c-.253.13-.525-.036-.551-.332l-.04-.51-.036-.65-.018-.504-.01-.556v-.608l.011-.586.02-.527.026-.464.042-.566c.027-.316.325-.51.583-.38ZM20 7.5a1.5 1.5 0 0 1 0 3h-9a1.5 1.5 0 0 1 0-3h9Zm0-5a1.5 1.5 0 0 1 0 3H4a1.5 1.5 0 1 1 0-3h16Z"/></g></svg>
